SSG/public/assets/logo.svg

<svg width="61" height="21" viewBox="0 0 61 21" fill="none" xmlns="http://www.w3.org/2000/svg">
<path d="M54.2408 10.8448C54.2408 12.0721 53.997 13.1327 53.5095 14.0266C53.022 14.9205 52.3532 15.6099 51.5032 16.0948C50.6532 16.5796 49.6823 16.8221 48.5906 16.8221C47.4989 16.8221 46.528 16.5796 45.678 16.0948C44.828 15.6099 44.1592 14.9205 43.6717 14.0266C43.1842 13.1327 42.9404 12.0721 42.9404 10.8448C42.9404 9.61752 43.1842 8.55691 43.6717 7.66298C44.1592 6.76904 44.828 6.07964 45.678 5.5948C46.528 5.10995 47.4989 4.86752 48.5906 4.86752C49.6823 4.86752 50.6532 5.10995 51.5032 5.5948C52.3532 6.07964 53.022 6.76904 53.5095 7.66298C53.997 8.55691 54.2408 9.61752 54.2408 10.8448ZM52.7408 10.8448C52.7408 9.83722 52.5553 8.98684 52.1845 8.29366C51.8178 7.60048 51.3199 7.07585 50.6907 6.71979C50.0657 6.36373 49.3656 6.1857 48.5906 6.1857C47.8156 6.1857 47.1135 6.36373 46.4843 6.71979C45.8593 7.07585 45.3613 7.60048 44.9905 8.29366C44.6238 8.98684 44.4405 9.83722 44.4405 10.8448C44.4405 11.8524 44.6238 12.7027 44.9905 13.3959C45.3613 14.0891 45.8593 14.6137 46.4843 14.9698C47.1135 15.3258 47.8156 15.5039 48.5906 15.5039C49.3656 15.5039 50.0657 15.3258 50.6907 14.9698C51.3199 14.6137 51.8178 14.0891 52.1845 13.3959C52.5553 12.7027 52.7408 11.8524 52.7408 10.8448Z" fill="black"/>
<path d="M39.1106 8.66297C38.9731 8.2804 38.7919 7.9376 38.5669 7.63457C38.346 7.32775 38.0814 7.06638 37.7731 6.85048C37.4689 6.63457 37.1231 6.46979 36.7355 6.35616C36.348 6.24252 35.923 6.1857 35.4605 6.1857C34.7021 6.1857 34.0125 6.36373 33.3917 6.71979C32.7708 7.07585 32.2771 7.60048 31.9104 8.29366C31.5437 8.98684 31.3604 9.83722 31.3604 10.8448C31.3604 11.8524 31.5458 12.7027 31.9166 13.3959C32.2875 14.0891 32.7896 14.6137 33.4229 14.9698C34.0563 15.3258 34.7688 15.5039 35.5605 15.5039C36.2939 15.5039 36.9397 15.3618 37.4981 15.0777C38.0606 14.7899 38.4981 14.3846 38.8106 13.8618C39.1273 13.3353 39.2856 12.716 39.2856 12.0039L39.7606 12.0948H35.9105V10.8448H40.7857V12.0948C40.7857 13.0531 40.5607 13.8865 40.1107 14.5948C39.6648 15.3031 39.0481 15.8524 38.2606 16.2425C37.4772 16.6289 36.5772 16.8221 35.5605 16.8221C34.4271 16.8221 33.4313 16.5796 32.5729 16.0948C31.7187 15.6099 31.052 14.9205 30.5728 14.0266C30.0978 13.1327 29.8603 12.0721 29.8603 10.8448C29.8603 9.92434 29.9957 9.09669 30.2666 8.36184C30.5416 7.6232 30.9291 6.99442 31.4291 6.47548C31.9291 5.95654 32.5208 5.55881 33.2042 5.2823C33.8875 5.00578 34.6396 4.86752 35.4605 4.86752C36.1355 4.86752 36.7647 4.96033 37.3481 5.14593C37.9356 5.32775 38.4585 5.58722 38.9169 5.92434C39.3794 6.25767 39.7648 6.65729 40.0732 7.1232C40.3815 7.58532 40.594 8.09858 40.7107 8.66297H39.1106Z" fill="black"/>
<path d="M27.754 10.8448C27.754 12.0721 27.5102 13.1327 27.0227 14.0266C26.5352 14.9205 25.8664 15.6099 25.0164 16.0948C24.1664 16.5796 23.1955 16.8221 22.1038 16.8221C21.0121 16.8221 20.0412 16.5796 19.1912 16.0948C18.3412 15.6099 17.6724 14.9205 17.1849 14.0266C16.6974 13.1327 16.4536 12.0721 16.4536 10.8448C16.4536 9.61752 16.6974 8.55691 17.1849 7.66298C17.6724 6.76904 18.3412 6.07964 19.1912 5.5948C20.0412 5.10995 21.0121 4.86752 22.1038 4.86752C23.1955 4.86752 24.1664 5.10995 25.0164 5.5948C25.8664 6.07964 26.5352 6.76904 27.0227 7.66298C27.5102 8.55691 27.754 9.61752 27.754 10.8448ZM26.254 10.8448C26.254 9.83722 26.0685 8.98684 25.6977 8.29366C25.331 7.60048 24.8331 7.07585 24.2039 6.71979C23.5789 6.36373 22.8788 6.1857 22.1038 6.1857C21.3288 6.1857 20.6267 6.36373 19.9975 6.71979C19.3725 7.07585 18.8745 7.60048 18.5037 8.29366C18.137 8.98684 17.9537 9.83722 17.9537 10.8448C17.9537 11.8524 18.137 12.7027 18.5037 13.3959C18.8745 14.0891 19.3725 14.6137 19.9975 14.9698C20.6267 15.3258 21.3288 15.5039 22.1038 15.5039C22.8788 15.5039 23.5789 15.3258 24.2039 14.9698C24.8331 14.6137 25.331 14.0891 25.6977 13.3959C26.0685 12.7027 26.254 11.8524 26.254 10.8448Z" fill="black"/>
<path d="M7.55178 16.663V5.02663H9.10183V15.413H15.052V16.663H7.55178Z" fill="black"/>
</svg>

<svg width="61" height="21" fill="none" xmlns="http://www.w3.org/2000/svg"><path d="M54.24 10.845c0 1.227-.243 2.288-.73 3.182a5.18 5.18 0 0 1-2.007 2.068c-.85.485-1.82.727-2.912.727-1.092 0-2.063-.242-2.913-.727a5.18 5.18 0 0 1-2.006-2.068c-.488-.894-.732-1.955-.732-3.182 0-1.227.244-2.288.732-3.182a5.18 5.18 0 0 1 2.006-2.068c.85-.485 1.82-.727 2.913-.727 1.091 0 2.062.242 2.912.727a5.18 5.18 0 0 1 2.007 2.068c.487.894.73 1.955.73 3.182Zm-1.5 0c0-1.008-.185-1.858-.556-2.551-.366-.694-.864-1.218-1.493-1.574-.625-.356-1.325-.534-2.1-.534-.775 0-1.477.178-2.107.534-.625.356-1.123.88-1.494 1.574-.366.693-.55 1.543-.55 2.55 0 1.008.184 1.859.55 2.552.371.693.87 1.218 1.494 1.574.63.356 1.332.534 2.107.534.775 0 1.475-.178 2.1-.534.629-.356 1.127-.88 1.493-1.574.371-.693.557-1.544.557-2.551ZM39.11 8.663a3.959 3.959 0 0 0-.543-1.028 3.314 3.314 0 0 0-.794-.785 3.457 3.457 0 0 0-1.038-.494 4.517 4.517 0 0 0-1.274-.17c-.759 0-1.448.178-2.07.534-.62.356-1.114.88-1.48 1.574-.367.693-.55 1.543-.55 2.55 0 1.008.185 1.859.556 2.552.37.693.873 1.218 1.506 1.574.633.356 1.346.534 2.137.534.734 0 1.38-.142 1.938-.426.563-.288 1-.693 1.313-1.216.316-.527.475-1.146.475-1.858l.475.09h-3.85v-1.25h4.875v1.25c0 .96-.225 1.793-.675 2.5a4.488 4.488 0 0 1-1.85 1.649c-.784.386-1.684.58-2.7.58-1.134 0-2.13-.243-2.988-.728a5.085 5.085 0 0 1-2-2.068c-.475-.894-.713-1.955-.713-3.182 0-.92.136-1.748.407-2.483a5.389 5.389 0 0 1 1.162-1.887 5.08 5.08 0 0 1 1.775-1.193c.684-.276 1.436-.414 2.257-.414.675 0 1.304.092 1.887.278.588.182 1.11.441 1.569.778.462.334.848.733 1.156 1.2.309.461.521.975.638 1.539h-1.6ZM27.754 10.845c0 1.227-.244 2.288-.731 3.182a5.18 5.18 0 0 1-2.007 2.068c-.85.485-1.82.727-2.912.727-1.092 0-2.063-.242-2.913-.727a5.18 5.18 0 0 1-2.006-2.068c-.488-.894-.731-1.955-.731-3.182 0-1.227.243-2.288.73-3.182a5.18 5.18 0 0 1 2.007-2.068c.85-.485 1.821-.727 2.913-.727 1.091 0 2.062.242 2.912.727a5.18 5.18 0 0 1 2.007 2.068c.487.894.731 1.955.731 3.182Zm-1.5 0c0-1.008-.186-1.858-.556-2.551-.367-.694-.865-1.218-1.494-1.574-.625-.356-1.325-.534-2.1-.534-.775 0-1.477.178-2.107.534-.625.356-1.122.88-1.493 1.574-.367.693-.55 1.543-.55 2.55 0 1.008.183 1.859.55 2.552.37.693.868 1.218 1.493 1.574.63.356 1.332.534 2.107.534.775 0 1.475-.178 2.1-.534.63-.356 1.127-.88 1.494-1.574.37-.693.556-1.544.556-2.551ZM7.552 16.663V5.027h1.55v10.386h5.95v1.25h-7.5Z" fill="#000"/></svg>
